storage/app/icons/phosphoricons/light/grid-four-light.svg

<svg xmlns="http://www.w3.org/2000/svg" fill="currentColor" viewBox="0 0 256 256"><path d="M200 42H56a14 14 0 0 0-14 14v144a14 14 0 0 0 14 14h144a14 14 0 0 0 14-14V56a14 14 0 0 0-14-14m2 14v66h-68V54h66a2 2 0 0 1 2 2M56 54h66v68H54V56a2 2 0 0 1 2-2m-2 146v-66h68v68H56a2 2 0 0 1-2-2m146 2h-66v-68h68v66a2 2 0 0 1-2 2"/></svg>

<svg xmlns="http://www.w3.org/2000/svg" viewBox="0 0 256 256" fill="currentColor"><path d="M200,42H56A14,14,0,0,0,42,56V200a14,14,0,0,0,14,14H200a14,14,0,0,0,14-14V56A14,14,0,0,0,200,42Zm2,14v66H134V54h66A2,2,0,0,1,202,56ZM56,54h66v68H54V56A2,2,0,0,1,56,54ZM54,200V134h68v68H56A2,2,0,0,1,54,200Zm146,2H134V134h68v66A2,2,0,0,1,200,202Z"/></svg>
